!!!COA:	Josquin des Prez
!!!CDT:	~1450-1521/08/27
!!!OPR:	Missa Veni sancte spiritus
!!!ONM:	3
!!!OTL:	Credo
!!!AGN:	Mass; Credo
!!!SCT:	NJE 4.6
!!!SCA:	New Josquin Edition 4.6
!!!voices:	5
!!!voices-OPR:	5
**kern	**kern	**kern	**kern	**kern
*staff5	*staff4	*staff3	*staff2	*staff1
*Ivox	*Ivox	*Ivox	*Ivox	*Ivox
*I"Bassus	*I"Vagans	*I"Tenor	*I"Altus	*I"Superius
*I'B	*I'V	*I'T	*I'A	*I'S
*>[A,B,C]	*>[A,B,C]	*>[A,B,C]	*>[A,B,C]	*>[A,B,C]
*>A	*>A	*>A	*>A	*>A
*clefF4	*clefF4	*clefGv2	*clefGv2	*clefG2
*k[]	*k[]	*k[]	*k[]	*k[]
*M2/1	*M2/1	*M2/1	*M2/1	*M2/1
*met(C|)	*met(C|)	*met(C|)	*met(C|)	*met(C|)
=1-	=1-	=1-	=1-	=1-
0r	0r	0r	1d	0r
.	.	.	2d\	.
.	.	.	2d\	.
=2	=2	=2	=2	=2
0r	0r	0r	2B\	1g
.	.	.	2B\	.
.	.	.	[1c	2g/
.	.	.	.	2g/
=3	=3	=3	=3	=3
1r	0r	0r	2c\]	2e/
.	.	.	2A/	2e/
1D	.	.	1A	2.f/
.	.	.	.	4d/
=4	=4	=4	=4	=4
2D\	1r	0r	2r	1d
2D\	.	.	2A/	.
2BB/	1G	.	2B\	2r
2BB/	.	.	2B\	2d/
=5	=5	=5	=5	=5
1.C	2G\	0r	1G	2e/
.	2G\	.	.	2e/
.	2E\	.	1c	1e
[2AA/	2E\	.	.	.
=6	=6	=6	=6	=6
2AA/]	2.F\	0r	2r	2c/
1D	.	.	2.A/	2.f/
.	4D\	.	.	.
.	2D\	.	.	.
.	.	.	4B\	4g/
2C/	2E\	.	2c\	[2a/
=7	=7	=7	=7	=7
2F\	2F\	0r	4A/	4a/]
.	.	.	4B\	4g/
2E\	2G\	.	4c\	1g
.	.	.	8B\L	.
.	.	.	8c\J	.
1D	1A	.	1d	.
.	.	.	.	2f#i/
=8	=8	=8	=8	=8
0GG	1G	1r	1.B	1g
.	2D\	[1G	.	2r
.	[2G\	.	2B\	[2d/
=9	=9	=9	=9	=9
2r	4G\]	2G/]	2B\	2d/]
.	4F\	.	.	.
1C	4E\	2G/	2G/	2e/
.	4D\	.	.	.
.	2E\	2G/	[1c	2e/
2C/	2C/	2G/	.	2e/
=10	=10	=10	=10	=10
2C/	1G	1E	1c]	1e
2C/	.	.	.	.
[1AA	1r	[1F	2.c\	2c/
.	.	.	.	[2cc\
.	.	.	4B\	.
=11	=11	=11	=11	=11
2AA/]	0r	2F/]	2A/	2cc\]
2.BB/	.	2D/	2G/	2.dd\
.	.	1D	1d	.
4GG/	.	.	.	4cc\
2GG/	.	.	.	4b\
.	.	.	.	4a/
=12	=12	=12	=12	=12
2r	2.A\	2.F/	2c\	1a
1D	.	.	2.A/	.
.	4G\	4E/	.	.
.	2F\	4F/	.	1r
.	.	4G/	4B\	.
2C/	[2E\	[2A/	2c\	.
=13	=13	=13	=13	=13
2BB/	4E\]	2A/]	2d\	0r
.	4D\	.	.	.
2GG/	1D	1G	2B\	.
2AA/	.	.	2c\	.
2AA/	2C/	2F#i/	2c\	.
=14	=14	=14	=14	=14
1GG	1D	1G	2B\	2r
.	.	.	1d	1b
2r	2.G\	2r	.	.
[2GG/	.	[2G/	2d\	2b\
.	4G\	.	.	.
=15	=15	=15	=15	=15
2GG/]	2B\	2G/]	2g\	2b\
2GG/	2B\	2G/	2g\	2b\
2C/	2.c\	2G/	2.g\	2.ee\
2C/	.	2G/	.	.
.	4c\	.	4g\	4ee\
=16	=16	=16	=16	=16
2.C/	2c\	2.G/	2g\	2ee\
.	2c\	.	1g	2ee\
4C/	.	4G/	.	.
2BB/	2d\	2G/	.	1dd
2BB/	2B\	2G/	2d\	.
=17	=17	=17	=17	=17
2AA/	1c	2A/	2f\	1cc
2AA/	.	2A/	2e\	.
1E	2r	1G	1g	2b\
.	2B\	.	.	2g/
=18	=18	=18	=18	=18
2F\	2A\	0r	2c\	2a/
2D\	2F\	.	2d\	2b\
2C/	2G\	.	2e\	2cc\
2D\	2F\	.	2f\	2a/
=19	=19	=19	=19	=19
2E\	2G\	0r	2e\	2g/
1F	2A\	.	2.a\	2cc\
.	2F\	.	.	4cc\
.	.	.	4g\	4b\
2E\	2G\	.	[2g\	4a/
.	.	.	.	4g/
=20	=20	=20	=20	=20
2D\	2.d\	0r	2g\]	2a/
2D\	.	.	2f#i\	2a/
.	4c\	.	.	.
2GG/	2B\	.	2g\	2g/
2D\	2A\	.	2fni\	2a/
=21	=21	=21	=21	=21
2F\	2d\	2r	2f\	2a/
2F\	2c\	2A/	2f\	2a/
2F\	2A\	2A/	2c\	2cc\
2F\	[2c\	2A/	2c\	2cc\
=22	=22	=22	=22	=22
2.E\	4c\]	2c\	1e	0g
.	4B\	.	.	.
.	2G\	2c\	.	.
4C/	.	.	.	.
1C	1c	[1G	2r	.
.	.	.	2e\	.
=23	=23	=23	=23	=23
2GG/	2B\	1G]	2d\	2r
1C	2.G\	.	1c	1e
.	.	2r	.	.
.	4A\	.	.	.
2GG/	2B\	[2G/	2B\	2d/
=24	=24	=24	=24	=24
2C/	2E\	2G/]	2c\	2e/
2GG/	2G\	2G/	2B\	2d/
1C	2E\	2G/	1c	[1e
.	[2C/	2G/	.	.
=25	=25	=25	=25	=25
1r	2C/]	1A	2.c\	2e/]
.	2F\	.	.	2f/
.	.	.	4d\	.
1C	2E\	1G	2e\	1g
.	2C/	.	[2f\	.
=26	=26	=26	=26	=26
1C	1c	1G	4f\]	1g
.	.	.	4e\	.
.	.	.	4e\	.
.	.	.	8d\L	.
.	.	.	8e\J	.
1F	2r	[1F	1f	1a
.	2c\	.	.	.
=27	=27	=27	=27	=27
1D	1d	1F]	2r	2r
.	.	.	1f	1a
1r	2A\	1r	.	.
.	2c\	.	2e\	2g/
=28	=28	=28	=28	=28
0r	2d\	0r	2d\	2f/
.	2A\	.	2.c\	2e/
.	2F\	.	.	1d
.	.	.	8B/L	.
.	.	.	8A/J	.
.	2G\	.	2B\	.
=29	=29	=29	=29	=29
2r	1A	0r	2c\	1c
2F\	.	.	2A/	.
2F\	2r	.	2c\	2r
2F\	2D\	.	2d\	2f/
=30	=30	=30	=30	=30
1A	2F\	0r	2c\	2f/
.	2F\	.	2.f\	2f/
1G	2C/	.	.	2g/
.	.	.	4e\	.
.	2C/	.	4e\	2g/
.	.	.	4d\	.
=31	=31	=31	=31	=31
2F\	1F	2r	0f	0a
1D	.	2F/	.	.
.	2r	2F/	.	.
2D\	2A\	2F/	.	.
=32	=32	=32	=32	=32
1BB	2B\	2G/	1d	1r
.	2B\	2G/	.	.
1AA	2c\	[1A	2c\	2r
.	2A\	.	2e\	2cc\
=33	=33	=33	=33	=33
2r	1c	1A]	2f\	2.cc\
1F	.	.	2.c\	.
.	.	.	.	4b\
.	1r	1r	.	2a/
.	.	.	4B\	.
2E\	.	.	2c\	2g/
=34	=34	=34	=34	=34
2D\	1r	2r	2d\	2f/
2C/	.	2c\	2e\	1e
1AA	1C	2.c\	2r	.
.	.	.	[2c\	2e/
.	.	4B\	.	.
=35	=35	=35	=35	=35
1r	2D\	2A/	2c\]	2f/
.	2E\	2G/	2B\	2g/
1AA	1C	2F/	2c\	1a
.	.	2E/	2e\	.
=36	=36	=36	=36	=36
2D\	2D\	2F/	2d\	1r
2GG/	1d	2G/	1g	.
1D	.	1A	.	2r
.	2d\	.	2f#i\	2a/
=37	=37	=37	=37	=37
0GG	2.B\	0G	2g\	2b\
.	.	.	2d\	2.dd\
.	4G\	.	.	.
.	1G	.	2.g\	.
.	.	.	.	4cc\
.	.	.	.	4b\
.	.	.	4f\	4a/
=38	=38	=38	=38	=38
0r	2.c\	0r	4e\	2g/
.	.	.	4d\	.
.	.	.	2c\	2.cc\
.	4B\	.	.	.
.	4A\	.	2.f\	.
.	4G\	.	.	4b\
.	[2F\	.	.	4a/
.	.	.	4e\	4g/
=39	=39	=39	=39	=39
0r	2F\]	0r	4d\	2a/
.	.	.	4c\	.
.	2E\	.	1c	2g/
.	1D	.	.	1f
.	.	.	2B\	.
=40	=40	=40	=40	=40
2AA/	1C	2r	0c	0e
2AA/	.	1A	.	.
2C/	1r	.	.	.
2C/	.	2A/	.	.
=41	=41	=41	=41	=41
2D\	2F\	2A/	0r	0r
2D\	2F\	2A/	.	.
2.E\	2.G\	2.c\	.	.
4D\	4F\	4B\	.	.
=42	=42	=42	=42	=42
2C/	2E\	4A/	0r	0r
.	.	4G/	.	.
2BB/	1D	1G	.	.
1AA	.	.	.	.
.	2C/	2F#i/	.	.
=43	=43	=43	=43	=43
0GG	1D	0G	2r	2r
.	.	.	1d	1b
.	2D\	.	.	.
.	2D\	.	2d\	2b\
=44	=44	=44	=44	=44
0r	2A\	0r	2c\	2cc\
.	2F\	.	2d\	2a/
.	2E\	.	2e\	2g/
.	2A\	.	2c\	2e/
=45	=45	=45	=45	=45
0r	2F\	0r	2d\	2f/
.	2E\	.	2e\	2.g/
.	2r	.	2c\	.
.	.	.	.	4f/
.	2E\	.	2g\	4e/
.	.	.	.	4d/
=46	=46	=46	=46	=46
1r	2E\	0r	2e\	2c/
.	2E\	.	2c\	2g/
2r	1F	.	2.f\	2.a/
[2D\	.	.	.	.
.	.	.	4e\	4g/
=47	=47	=47	=47	=47
2D\]	0r	2r	2d\	2f/
2AA/	.	2A/	2c\	2e/
2D\	.	2.A/	2d\	2f/
2C/	.	.	2e\	2e/
.	.	4G/	.	.
=48	=48	=48	=48	=48
2D\	2r	2F/	4A/	1a
.	.	.	4B\	.
2AA/	2.A\	2E/	4c\	.
.	.	.	4B\	.
2D\	.	2F/	4A/	1r
.	4B\	.	4G/	.
2E\	2c\	2G/	[2G/	.
=49	=49	=49	=49	=49
1D	1d	1A	2G/]	2r
.	.	.	2F#i/	2a/
1GG	1B	1G	2G/	2b\
.	.	.	2B\	2g/
=50	=50	=50	=50	=50
0r	2r	0r	2A/	2.cc\
.	2A\	.	2c\	.
.	.	.	.	4b\
.	2F\	.	2d\	2a/
.	2E\	.	2e\	2g/
=51	=51	=51	=51	=51
1r	1F	0r	2c\	1a
.	.	.	1d	.
1GG	1G	.	.	1b
.	.	.	2e\	.
=52	=52	=52	=52	=52
1.D	2F\	1F	2f\	0a
.	2A\	.	2f\	.
.	2A\	2F/	2f\	.
2D\	2F\	2F/	2f\	.
=53	=53	=53	=53	=53
2C/	2C/	2G/	2e\	1r
2BB/	2D\	2G/	2d\	.
2AA/	2E\	1A	2c\	2r
2AA/	2E\	.	2e\	2cc\
=54	=54	=54	=54	=54
2AA/	2A\	2r	2e\	2.cc\
2AA/	2A\	2c\	2e\	.
.	.	.	.	4b\
2D\	1D	1d	2f\	4a/
.	.	.	.	4g/
[2GG/	.	.	[2g\	[2b\
=55	=55	=55	=55	=55
2GG/]	2r	2d\	2g\]	4b\]
.	.	.	.	4a/
2AA/	2.E\	2c\	2e\	1a
1E	.	1B	1e	.
.	4F\	.	.	.
.	2G\	.	.	2g#i/
=56	=56	=56	=56	=56
2AA/	2E\	1A	2r	1a
1F	1A	.	2c\	.
.	.	1c	2A/	1a
2F\	2F\	.	2A/	.
=57	=57	=57	=57	=57
2E\	2G\	1c	1e	1g
2C/	2E\	.	.	.
1F	1D	1A	1r	1a
=58	=58	=58	=58	=58
1E	1r	1G	0e	1b
1AA	1C	1A	.	1cc
=59	=59	=59	=59	=59
1C	1C	1G	1e	1cc
[1D	[1F	1F	2f\	1a
.	.	.	2d\	.
=60	=60	=60	=60	=60
1D]	1F]	2r	2.f\	2.dd\
.	.	2F/	.	.
.	.	.	4e\	4cc\
2r	2r	2G/	1d	2b\
2D\	2F\	[2A/	.	2a/
=61	=61	=61	=61	=61
2AA/	2C/	2A/]	1e	2.cc\
2C/	2E\	2G/	.	.
.	.	.	.	4b\
2D\	2D\	2F/	2f\	4a/
.	.	.	.	4g/
2AA/	2C/	[2c\	2e\	[2a/
=62	=62	=62	=62	=62
2F\	2r	4c\]	4A/	4a/]
.	.	4B\	4B\	4g/
2E\	2C/	4A/	4c\	1g
.	.	4G/	8B\L	.
.	.	.	8c\J	.
1D	2.F\	1A	1d	.
.	.	.	.	2f#i/
.	4D\	.	.	.
=63	=63	=63	=63	=63
0GGl	0Dl	0Gl	0dl	0gl
!!LO:LB:i:g=z
=64||	=64||	=64||	=64||	=64||
*>B	*>B	*>B	*>B	*>B
*clefF4	*clefF4	*clefGv2	*clefGv2	*clefG2
*k[]	*k[]	*k[]	*k[]	*k[]
*M2/1	*M2/1	*M2/1	*M2/1	*M2/1
*met(C|)	*met(C|)	*met(C|)	*met(C|)	*met(C|)
!!section: Crucifixus
!!!OMD: Crucifixus
0r	0r	0r	1d	0r
.	.	.	1c	.
=65	=65	=65	=65	=65
1G	0r	0r	1B	0r
1F	.	.	2A/	.
.	.	.	[2d\	.
=66	=66	=66	=66	=66
1E	0r	1r	2d\]	1g
.	.	.	2c#i\	.
1D	.	2r	1d	1f
.	.	[2d\	.	.
=67	=67	=67	=67	=67
2r	0r	2d\]	0r	1e
2AA/	.	2c\	.	.
2.BB/	.	[1d	.	2.d/
4C/	.	.	.	4e/
=68	=68	=68	=68	=68
2D\	0r	2d\]	1r	4f/
.	.	.	.	4g/
2AA/	.	2c\	.	2.a/
2BB/	.	1B	2r	.
.	.	.	.	4g/
2GG/	.	.	2d\	[2g/
=69	=69	=69	=69	=69
1D	0r	1A	1d	2g/]
.	.	.	.	2f#i/
1GG	.	1G	1B	[1g
=70	=70	=70	=70	=70
1r	0G	1r	1r	1g]
1GG	.	1B	1d	1r
=71	=71	=71	=71	=71
1C	1E	1c	1e	1g
1AA	[1A	1c	1e	[1a
=72	=72	=72	=72	=72
0D	1A]	0d	0f	2a/]
.	.	.	.	2a/
.	1F	.	.	1a
=73	=73	=73	=73	=73
1AA	1A	2c\	1e	1a
.	.	2.c\	.	.
[1AA	[1A	.	[1e	[1cc
.	.	4B\	.	.
.	.	4A/	.	.
.	.	4G/	.	.
=74	=74	=74	=74	=74
1AA]	1A]	1A	1e]	1cc]
1E	1G	1B	1e	1b
=75	=75	=75	=75	=75
1r	1r	1r	1r	1r
[1E	[1G	[1B	[1e	[1g
=76	=76	=76	=76	=76
1E]	1G]	1B]	1e]	1g]
1E	1E	1B	1e	1g
=77	=77	=77	=77	=77
1AA	1E	1c	1e	1a
1C	1E	1c	1e	1g
=78	=78	=78	=78	=78
1AA	1C	1c	1e	1a
1AA	1C	1c	1f	1a
=79	=79	=79	=79	=79
0GGl	0Dl	0Bl	0gl	0bl
!!LO:LB:i:g=z
=80||	=80||	=80||	=80||	=80||
*>C	*>C	*>C	*>C	*>C
*clefF4	*clefF4	*clefGv2	*clefGv2	*clefG2
*k[]	*k[]	*k[]	*k[]	*k[]
*M2/1	*M2/1	*M2/1	*M2/1	*M2/1
*met(C|)	*met(C|)	*met(C|)	*met(C|)	*met(C|)
!!section: Et resurrexit
!!!OMD: Et resurrexit
1E	1G	0r	1e	1g
2E\	2G\	.	2e\	2g/
2E\	2G\	.	2e\	2g/
=81	=81	=81	=81	=81
1D	2F\	0r	2.f\	1a
.	2F\	.	.	.
.	.	.	4e\	.
2GG/	2.G\	.	2d\	2b\
2C/	.	.	[2e\	2g/
.	4F\	.	.	.
=82	=82	=82	=82	=82
2C/	2E\	0r	4e\]	2a/
.	.	.	4d\	.
2BB/	1D	.	1g	2b\
1AA	.	.	.	1cc
.	2C/	.	2f#i\	.
=83	=83	=83	=83	=83
1GG	1D	0G	2g\	1b
.	.	.	2g\	.
1GG	2r	.	1g	2r
.	2D\	.	.	2b\
=84	=84	=84	=84	=84
1C	1E	1G	2e\	1cc
.	.	.	2c\	.
1GG	1D	1G	1d	1b
=85	=85	=85	=85	=85
1C	1E	2A/	1c	1cc
.	.	1A	.	.
1BB	2.D\	.	1r	1dd
.	.	2G#i/	.	.
.	4E\	.	.	.
=86	=86	=86	=86	=86
0AA	2F\	0A	2r	1cc
.	2E\	.	1e	.
.	2C/	.	.	2r
.	2C/	.	2e\	2cc\
=87	=87	=87	=87	=87
0r	2C/	0r	2e\	2cc\
.	2C/	.	2e\	2cc\
.	2G\	.	2d\	1dd
.	2G\	.	[2g\	.
=88	=88	=88	=88	=88
0r	1A	0r	2g\]	1cc
.	.	.	2f#i\	.
.	2G\	.	2g\	1b
.	2G\	.	2d\	.
=89	=89	=89	=89	=89
2r	2C/	1c	2e\	2a/
1AA	2E\	.	2e\	1cc
.	2A\	2c\	2c\	.
2AA/	2A\	2c\	2e\	2cc\
=90	=90	=90	=90	=90
2D\	2A\	2d\	2f\	2a/
2GG/	2G\	2d\	2g\	2.b\
2AA/	1C	1c	[1e	.
.	.	.	.	4a/
2AA/	.	.	.	[2a/
=91	=91	=91	=91	=91
1E	1r	1B	1e]	2a/]
.	.	.	.	2g#i/
1AA	1C	1A	2r	1a
.	.	.	2e\	.
=92	=92	=92	=92	=92
2r	2C/	2r	2e\	2r
2AA/	2C/	2c\	2e\	2a/
2AA/	1C	2c\	2e\	2a/
2AA/	.	2c\	2e\	2a/
=93	=93	=93	=93	=93
1C	2E\	1c	2e\	2g/
.	2G\	.	2e\	2e/
1D	2F\	2r	1d	1f
.	2D\	[2A/	.	.
=94	=94	=94	=94	=94
2C/	2E\	2A/]	2r	2e/
2D\	2F\	2.B\	2d\	2d/
2AA/	2E\	.	1e	1c
.	.	4A/	.	.
2C/	2C/	[2A/	.	.
=95	=95	=95	=95	=95
1BB	1D	2A/]	1d	1r
.	.	2G#i/	.	.
2AA/	1E	1A	2c\	2r
2AA/	.	.	[2e\	2cc\
=96	=96	=96	=96	=96
2.A\	0r	0r	2e\]	2cc\
.	.	.	2c\	2cc\
4A\	.	.	.	.
2A\	.	.	[1d	2a/
2G\	.	.	.	[2b\
=97	=97	=97	=97	=97
2F\	1r	0r	2d\]	4b\]
.	.	.	.	4a/
2D\	.	.	2c\	1a
1E	2.E\	.	1B	.
.	.	.	.	2g#i/
.	4E\	.	.	.
=98	=98	=98	=98	=98
2.AA/	2E\	2r	2A/	0a
.	2E\	2A/	1e	.
4BB/	.	.	.	.
2C/	2E\	2A/	.	.
2D\	2D\	[2A/	2f\	.
=99	=99	=99	=99	=99
2C/	1E	2A/]	2e\	2r
2AA/	.	2A/	1c	2cc\
2r	2.A\	2F/	.	2.cc\
2AA/	.	2E/	[2A/	.
.	4G\	.	.	4b\
=100	=100	=100	=100	=100
2D\	2F\	2F/	4A/]	2a/
.	.	.	4B\	.
2E\	2E\	2G/	2c\	1g
1D	2F\	2A/	1d	.
.	2D\	2A/	.	2f#i/
=101	=101	=101	=101	=101
0GG	1D	0G	1r	1g
.	2D\	.	1d	1r
.	2D\	.	.	.
=102	=102	=102	=102	=102
0r	1E	0r	1B	1g
.	1C	.	1c	1e
=103	=103	=103	=103	=103
0r	2D\	0r	1A	1f
.	2F\	.	.	.
.	2G\	.	2B\	2d/
.	[2A\	.	2A/	2f/
=104	=104	=104	=104	=104
0r	4A\]	0r	1B	2g/
.	4G\	.	.	.
.	1G	.	.	2g/
.	.	.	1A	1a
.	2F#i\	.	.	.
=105	=105	=105	=105	=105
1r	1G	1G	0G	1d
2.C/	1r	1E	.	1r
4C/	.	.	.	.
=106	=106	=106	=106	=106
2AA/	2.c\	2F/	0r	0r
2AA/	.	2F/	.	.
.	4c\	.	.	.
2BB/	2B\	1D	.	.
2GG/	2B\	.	.	.
=107	=107	=107	=107	=107
2AA/	2A\	1F	0r	0r
1D	1A	.	.	.
.	.	2F/	.	.
2C/	2E\	[2A/	.	.
=108	=108	=108	=108	=108
2BB/	2D\	4A/]	0r	1r
.	.	4G/	.	.
2C/	2E\	1G	.	.
1AA	1C	.	.	2r
.	.	2F#i/	.	2a/
=109	=109	=109	=109	=109
1GG	2D\	1G	2.d\	2b\
.	2D\	.	.	2g/
.	.	.	4e\	.
2r	2D\	2r	2f\	2a/
2GG/	2D\	2G/	2g\	2b\
=110	=110	=110	=110	=110
2C/	2C/	2G/	2e\	2cc\
2GG/	2D\	2G/	2d\	2.b\
1GG	[1D	1G	1d	.
.	.	.	.	4a/
.	.	.	.	[2g/
=111	=111	=111	=111	=111
1D	1D]	1A	2r	2g/]
.	.	.	1d	2f#i/
1GG	2r	1G	.	2g/
.	2D\	.	2d\	[2dd\
=112	=112	=112	=112	=112
1r	2G\	0r	2B\	2dd\]
.	2D\	.	2B\	2dd\
2r	2F\	.	2A/	2cc\
2G\	2G\	.	[2d\	2b\
=113	=113	=113	=113	=113
2.F\	2D\	0r	2d\]	2.a/
.	2A\	.	2c\	.
4E\	.	.	.	4g/
2D\	2.A\	.	2d\	2f/
2C/	.	.	2A/	2e/
.	4G\	.	.	.
=114	=114	=114	=114	=114
2D\	2F\	0r	2B\	2d/
2AA/	1E	.	1A	2c/
1BB	.	.	.	1d
.	2D\	.	2G#i/	.
=115	=115	=115	=115	=115
2AA/	2E\	2r	1A	1c
2.F\	2A\	2A/	.	.
.	2c\	2A/	2r	1r
4E\	.	.	.	.
2D\	2d\	2A/	2f\	.
=116	=116	=116	=116	=116
2C/	2e\	1.c	2e\	0r
1F	2A\	.	2.c\	.
.	2A\	.	.	.
.	.	.	4d\	.
2E\	2B\	2G/	2e\	.
=117	=117	=117	=117	=117
1F	1A	1A	1c	1r
2r	1r	2G/	2B\	2r
2A\	.	[2F/	2A/	2f/
=118	=118	=118	=118	=118
2G\	0r	2F/]	1B	2g/
2G\	.	2E/	.	2g/
2F\	.	1F	2A/	2.a/
[2A\	.	.	[2c\	.
.	.	.	.	4b\
=119	=119	=119	=119	=119
2A\]	1r	0r	2c\]	2cc\
2G\	.	.	2B\	2dd\
2A\	2A\	.	2c\	2cc\
2E\	2G\	.	[2e\	[2b\
=120	=120	=120	=120	=120
1F	2A\	0r	2e\]	4b\]
.	.	.	.	4a/
.	2A\	.	2d\	1a
1E	1B	.	2e\	.
.	.	.	[2e\	2g#i/
=121	=121	=121	=121	=121
2.AA/	0A	2.E/	2e\]	0a
.	.	.	2e\	.
4AA/	.	4E/	.	.
2D\	.	2F/	2d\	.
2D\	.	2F/	2f\	.
=122	=122	=122	=122	=122
2C/	1r	2G/	2e\	1r
2BB/	.	2G/	2d\	.
1AA	2r	1A	2c\	2r
.	2A\	.	2c\	2cc\
=123	=123	=123	=123	=123
0r	2B\	0r	2d\	2b\
.	1A	.	2e\	1cc
.	.	.	2f\	.
.	2G\	.	[2g\	2b\
=124	=124	=124	=124	=124
2r	1d	0r	2g\]	1a
2D\	.	.	2f#i\	.
2E\	1G	.	2g\	1g
[2C/	.	.	[2e\	.
=125	=125	=125	=125	=125
4C/]	0r	2r	4e\]	0r
4D\	.	.	4f\	.
4E\	.	2c\	4g\	.
4F\	.	.	8f\L	.
.	.	.	8e\J	.
2G\	.	2B\	2d\	.
[2F\	.	[2c\	[2a\	.
=126	=126	=126	=126	=126
2F\]	0r	2c\]	4a\]	2r
.	.	.	4g\	.
2G\	.	2B\	1g	2dd\
1D	.	1A	.	2dd\
.	.	.	2f#i\	2dd\
=127	=127	=127	=127	=127
0GG	2r	0G	2g\	1b
.	2B\	.	2d\	.
.	2B\	.	2d\	2g/
.	2B\	.	2d\	2g/
=128	=128	=128	=128	=128
0r	4c\	0r	2e\	2.cc\
.	4B\	.	.	.
.	4A\	.	2c\	.
.	4G\	.	.	4b\
.	2F\	.	2d\	2a/
.	2G\	.	2B\	2g/
=129	=129	=129	=129	=129
2r	2F\	0r	2c\	0a
2D\	2F\	.	2d\	.
2.F\	2.A\	.	2c\	.
.	.	.	[2f\	.
4E\	4G\	.	.	.
=130	=130	=130	=130	=130
2D\	2F\	1r	2f\]	2r
2AA/	2C/	.	2e\	2a/
1D	1F	2r	2f\	2a/
.	.	2A/	2f\	2a/
=131	=131	=131	=131	=131
1AA	0C	2A/	0e	2.cc\
.	.	2A/	.	.
.	.	.	.	4b\
2r	.	2.c\	.	2a/
2E\	.	.	.	2g/
.	.	4B\	.	.
=132	=132	=132	=132	=132
2F\	2r	2A/	2r	2cc\
2G\	2E\	2G/	1e	2.b\
1A	2C/	1c	.	.
.	.	.	.	4a/
.	2F\	.	2f\	[2a/
=133	=133	=133	=133	=133
1E	2.G\	1B	1e	2a/]
.	.	.	.	2g#i/
.	4E\	.	.	.
1AA	1E	1A	1c	1a
=134	=134	=134	=134	=134
*M3/1	*M3/1	*M3/1	*M3/1	*M3/1
*met(O|3)	*met(O|3)	*met(O|3)	*met(O|3)	*met(O|3)
1AA	1C	1A	1e	1cc
1AA	1E	1A	1e	1cc
1AA	1E	1A	1e	1cc
=135	=135	=135	=135	=135
0D	0D	0F	1f	0dd
.	.	.	0d	.
1D	1A	1F	.	1a
=136	=136	=136	=136	=136
0AA	0A	0E	1e	0cc
.	.	.	1c	.
1D	1A	1F	[1d	1a
=137	=137	=137	=137	=137
1BB	1D	1.G	1d]	1b
0AA	1E	.	1c	0cc
.	.	4F#i/	.	.
.	.	4E/	.	.
.	1C	1F#i	1A	.
=138	=138	=138	=138	=138
0GG	0D	0.G	0d	0b
1r	1r	.	1r	1r
=139	=139	=139	=139	=139
0GG	0G	0.r	0B	0dd
1AA	1E	.	1e	1cc
=140	=140	=140	=140	=140
1AA	1A	0.r	1c	1a
1AA	1E	.	1c	1cc
1GG	1G	.	1d	1b
=141	=141	=141	=141	=141
0D	0A	1F	1.f	0a
.	.	2F/	.	.
.	.	2F/	2e\	.
1r	1B-	2G/	1d	1r
.	.	2G/	.	.
=142	=142	=142	=142	=142
0AA	1A	1A	2c\	0cc
.	.	.	2d\	.
.	1A	1c	2e\	.
.	.	.	2f\	.
1GG	1D	1d	1g	1b
=143	=143	=143	=143	=143
1AA	0.r	1.c	0.e	1.a
0E	.	.	.	.
.	.	4B\	.	4g#i/
.	.	4A/	.	4f#/
.	.	1B	.	1g#i
=144	=144	=144	=144	=144
*M2/1	*M2/1	*M2/1	*M2/1	*M2/1
*met(C|)	*met(C|)	*met(C|)	*met(C|)	*met(C|)
1AA	1E	0A	2.c\	1a
.	.	.	4d\	.
2r	2C/	.	2e\	2r
[2A\	[2F\	.	[2f\	2cc\
=145	=145	=145	=145	=145
4A\]	4F\]	0r	4f\]	1cc
4G\	4G\	.	4e\	.
4F\	1A	.	1e	.
4E\	.	.	.	.
1F	.	.	.	1a
.	2D\	.	2d\	.
=146	=146	=146	=146	=146
2E\	2G\	2r	1e	0g
2.C/	2.E\	2c\	.	.
.	.	1c	2r	.
4D\	4D\	.	.	.
2E\	2C/	.	2g\	.
=147	=147	=147	=147	=147
2F\	2D\	1A	2f\	2r
2.C/	2C/	.	2.e\	2.cc\
.	1E	1G	.	.
4D\	.	.	4f\	4b\
2E\	.	.	2g\	2b\
=148	=148	=148	=148	=148
2AA/	2.F\	2r	2c\	2.a/
1D	.	1A	1d	.
.	4E\	.	.	4g/
.	2D\	.	.	2f/
2C/	2AA/	2A/	2e\	2e/
=149	=149	=149	=149	=149
2D\	1D	2A/	2.d\	1f
1F	.	2A/	.	.
.	.	.	4c\	.
.	1r	1G	1B	1g
2E\	.	.	.	.
=150	=150	=150	=150	=150
2F\	2r	1F	1A	1a
2D\	2D\	.	.	.
2AA/	2C/	2.F/	2r	2r
[2D\	[2F\	.	[2A/	[2a/
.	.	4E/	.	.
=151	=151	=151	=151	=151
4D\]	4F\]	2F/	2A/]	2a/]
4C/	4E\	.	.	.
2BB/	2D\	1G	2B\	2g/
1AA	2E\	.	2c\	2a/
.	2C/	2F#i/	2A/	2cc\
=152	=152	=152	=152	=152
1GG	2D\	0G	0d	0b
.	2.d\	.	.	.
1r	.	.	.	.
.	4c\	.	.	.
.	4B\	.	.	.
.	4A\	.	.	.
=153	=153	=153	=153	=153
1G	1B	1r	1d	1r
[1F	1A	1A	1f	1cc
=154	=154	=154	=154	=154
1F]	1c	1A	0f	1cc
1F	1c	1A	.	1cc
=155	=155	=155	=155	=155
1F	1c	1c	1f	1a
1F	1A	1c	1f	1a
=156	=156	=156	=156	=156
2.D\	1A	0d	1f	1a
4C/	.	.	.	.
2BB/	1G	.	1g	2r
2GG/	.	.	.	[2b\
=157	=157	=157	=157	=157
1AA	0r	1c	1e	4b\]
.	.	.	.	4a/
.	.	.	.	1a
1E	.	1B	1e	.
.	.	.	.	2g#i/
=158	=158	=158	=158	=158
2AA/	2r	[0A	2.f\	0a
2D\	2.F\	.	.	.
.	.	.	4e\	.
2.F\	.	.	2d\	.
.	4G\	.	.	.
.	[2A\	.	2c\	.
4E\	.	.	.	.
=159	=159	=159	=159	=159
2D\	4A\]	0A]	2d\	2r
.	4G\	.	.	.
2C/	1E	.	2A/	2.cc\
2AA/	.	.	2c\	.
.	.	.	.	4b\
2D\	2F\	.	2d\	2a/
=160	=160	=160	=160	=160
2E\	2G\	2r	2B\	2g/
2AA/	2C/	2.c\	2A/	2a/
1AA	2r	.	[1e	2e/
.	.	4B\	.	.
.	[2C/	2A/	.	[2cc\
=161	=161	=161	=161	=161
2r	4C/]	2G/	0e]	4cc\]
.	4D\	.	.	4b\
2AA/	4E\	2A/	.	2a/
.	4F\	.	.	.
2C/	2E\	2E/	.	2g/
[2AA/	2C/	[2c\	.	2a/
=162	=162	=162	=162	=162
4AA/]	1C	4c\]	2r	2e/
4GG/	.	4B\	.	.
4AA/	.	2A/	2.e\	2.cc\
4BB/	.	.	.	.
2C/	2r	2G/	.	.
.	.	.	4d\	4b\
2D\	2F\	2F/	[2d\	[2a/
=163	=163	=163	=163	=163
1E	2E\	1G	2d\]	2a/]
.	2C/	.	2c\	1g
1D	2.F\	1A	1d	.
.	.	.	.	2f#i/
.	4D\	.	.	.
=164	=164	=164	=164	=164
0GGl	0Dl	0Gl	0dl	0gl
==	==	==	==	==
*-	*-	*-	*-	*-
!!!RDF**kern: l=long note in original notation
!!!RDF**kern: i=editorial accidental
!!!RDF**kern: V=start of tuplet marker
!!!RDF**kern: Z=end of tuplet marker
!!!ENC:	Victoria Chang 2011/05/04
!!!END:	2011/05/04/
!!!EED:	Jesse Rodin
!!!EEV:	2012/06/25/
!!attribution-level@Jos: 4 (questionable)
!!!ONB:	Translated from MusicXML and edited on 2012/06/25/ by Craig Sapp
!!muse2ps: T^@{OPR}^u^@{ONM}{. }@{OTL}^C^@{COA}?\n@{SCT}^i2I150v85,85,85,85,130Q16
